X: 16211
T: I was not -- Since Martinmass
%R: march, reel
B: James Oswald "The Caledonian Pocket Companion" v.1 b.6 p.21
S: https://ia800501.us.archive.org/18/items/caledonianpocket01rugg/caledonianpocket01rugg_bw.pdf
Z: 2020 John Chambers <jc:trillian.mit.edu>
M: 2/4
L: 1/16
K: G
"_Brisk"B2 |\
G2g2 d2(cB) | A2 =F4 A2 | G2g2 d2(cB) | d2 G4 B2 |\
G2g2 d2(cB) | A2 =F4 A2 | G2g2 d2(ef) | (gf)(ed) (ed)(cB) |\
c2e2 d2(cB) | A2 =F4 :|
|: a2 |\
b2g2 (gf)(ed) | g2 G4 a2 | b2g2 (gf)(ed) | A2 F4 a2 |\
b2g2 (gf)(ed) | (gf)(ed) (ed)(cB) | c2e2 d2(cB) | A2 =F4 ::\
(Bc) | d2(Bc) (dB)(ge) |
d2 G4 (Bc) | d2(Bc) (d=f)(eg) | =f2 F4 (Bc) |\
d2(Bc) (dB)(dg) | (dB)(ge) d2(cB) | (cdec) (BcdB) | A2 =F4 :: B2 |\
G2g2 d2(cB) |
G2g2 AcBA | G2g2 d2(cB) | A2=f2F2A2 |\
Ggfg d2(ef) | (gf)(ed) (ed)(cB) | ceac BdgB | A2 =F4 a2 |\
b2g2 (gf)(ed) | g2 G4 :|
